!!!COM: Schubert, Franz
!!!CNT: Deutscher
!!!TXO: Deutsch
!!!OTL: "Ihr Bild"
!!!OPR: Schwanengesang
!!!LYR: Heine, Heinrich
!!!ONM: No. 9
!!!ODT: 1828/
!!NB: Vocal melody only encoded.
**kern	**silbe
*clefG2	*
*k[b-e-a-d-g-]	*
*M2/2	*
*MM[langsam]	*
=2	=2
2r	.
4r	.
{4b-	{Ich
=3	=3
4.b-	stand
8dd-	in
4cc	dunk-
4b-	-len
=4	=4
2an	Tra2u-
4b-}	-men}
{4cc	{und
=5	=5
4..gg-	starrt'
16f	ihr
4..gg-	Bild-
16a-	-niss
=6	=6
2.f}	an,}
4r	.
=8	=8
2r	.
4r	.
{4f	{und
=9	=9
4.b-	das
8b-	ge-
4cc	-lieb-
4b-	-te
=10	=10
2ddn	Ant-
4cc}	-litz}
4r	.
=11	=11
{4ee-	{heim-
8dd-	-lich
8cc	zu
4ddn	le-
8cc	-ben
8cc	be-
=12	=12
2.b-}	-gann.}
4r	.
=14	=14
2r	.
4r	.
{4b-	{Um
=15	=15
4.b-	ih-
8b-	-re
4.b-	Lip-
8a-	-pen
=16	=16
4a-	zog
2g-}	sich}
{4g-	{ein
=17	=17
4.cc-	La2-
8cc-	-cheln
4.cc-	wun-
8dd-	-der-
=18	=18
2b-}	-bar,}
4r	.
{4b-	{und
=19	=19
4.b-	wie
8b-	von
8b-	Weh-
8a-	|
8g-	-muths-
8f	|
=20	=20
4f	-thra2-
2e-}	-nen}
{4g	{er-
=21	=21
4cc-	-gla2nz-
8cc-	-te
8cc-	ihr
8cc-M	Au-
8b-	|
8cc-	-gen-
8dd-	|
=22	=22
2b-}	-paar.}
2r	.
=24	=24
2r	.
4r	.
{4b-	{Auch
=25	=25
4.b-	mei-
8dd-	-ne
4cc	Thra2-
4b-	-nen
=26	=26
2an	flos-
4b-}	-sen}
{4cc	{mir
=27	=27
4..g-	von
16f	den
4g-	Wan-
8.g-	-gen
16a-	her-
=28	=28
2.f}	-ab}
4r	.
=30	=30
2r	.
4r	.
{4f	{und
=31	=31
4.b-	ach,
8b-	ich
4cc	kann
8b-	es
8b-	nicht
=32	=32
2ddn	glau-
4cc}	-ben,}
{8cc	{dass
8cc	ich
=33	=33
4ee-	dich
8ddn	ver-
8cc	|
4ddn	-lo-
4cc	-ren
=34	=34
2.b-}	hab'}
4r	.
*-	*-
